image/advantages-icon.svg

<svg fill="none" height="49" viewBox="0 0 8 49" width="8" xmlns="http://www.w3.org/2000/svg"><path d="m3.32857 48.3536c.19527.1952.51185.1952.70711 0l3.18198-3.182c.19526-.1953.19526-.5119 0-.7071-.19526-.1953-.51184-.1953-.70711 0l-2.82842 2.8284-2.82843-2.8284c-.195262-.1953-.511845-.1953-.707107 0-.1952621.1952-.1952622.5118 0 .7071zm.35356-48.3536-.5-.00000002v48.00000002h.5.5v-47.99999998z" fill="#c6c6c6"/></svg>

<svg width="8" height="49" viewBox="0 0 8 49" fill="none" xmlns="http://www.w3.org/2000/svg">
<path d="M3.32857 48.3536C3.52384 48.5488 3.84042 48.5488 4.03568 48.3536L7.21766 45.1716C7.41292 44.9763 7.41292 44.6597 7.21766 44.4645C7.0224 44.2692 6.70582 44.2692 6.51055 44.4645L3.68213 47.2929L0.8537 44.4645C0.658438 44.2692 0.341855 44.2692 0.146593 44.4645C-0.0486691 44.6597 -0.0486692 44.9763 0.146593 45.1716L3.32857 48.3536ZM3.68213 0L3.18213 -2.18557e-08L3.18213 48L3.68213 48L4.18213 48L4.18213 2.18557e-08L3.68213 0Z" fill="#C6C6C6"/>
</svg>
